gama.ui.shared/icons_svg/dark/gaml/_reflex.svg

<svg height="18" viewBox="13.503 -2806.737 24 18" width="24" xmlns="http://www.w3.org/2000/svg"><path d="m25.559666-2804.737c1.072738 0 1.943364.8707 1.943364 1.9435v10.1133c0 1.0727-.870626 1.9432-1.943364 1.9432h-10.11327c-1.072737 0-1.943365-.8705-1.943365-1.9432v-10.1133c0-1.065.862854-1.9278 1.920045-1.9435h10.128817zm-10.082176.7775c-.668518 0-1.18934.5208-1.18934 1.166v10.1133c0 .6452.513049 1.166 1.158246 1.166h10.11327c.645197 0 1.166019-.5208 1.166019-1.166v-10.1133c0-.6452-.520822-1.166-1.166019-1.166zm3.389228 7.9211c.132149.171.108828.412-.062188.5442s-.411993.1088-.544142-.0622l-1.554692-1.9434c-.116602-.1399-.116602-.342 0-.4819l1.554692-1.9433c.132149-.171.3809-.1944.544142-.0623.171016.1323.194337.3809.062188.5443l-1.360355 1.7022zm3.2804-3.4046c-.132148-.1712-.108828-.412.062187-.5443.171017-.1321.411995-.1087.544143.0623l1.554692 1.9433c.1166.1399.1166.342 0 .4819l-1.554692 1.9434c-.132148.171-.3809.1944-.544143.0622-.171015-.1322-.194335-.3808-.062187-.5442l1.360355-1.7024z" fill="#999"/></svg>

<?xml version="1.0" encoding="UTF-8" standalone="no"?>
<!DOCTYPE svg PUBLIC "-//W3C//DTD SVG 1.1//EN" "http://www.w3.org/Graphics/SVG/1.1/DTD/svg11.dtd">
<svg xmlns:dc="http://purl.org/dc/elements/1.1/" xmlns:xl="http://www.w3.org/1999/xlink" version="1.1" xmlns="http://www.w3.org/2000/svg" viewBox="13.503031 -2806.737 24 18" width="24" height="18">
  <defs/>
  <g id="SOURCES" stroke-dasharray="none" stroke="none" stroke-opacity="1" fill="none" fill-opacity="1">
    <title>SOURCES</title>
    <g id="SOURCES_New">
      <title>New</title>
      <g id="Group_10459">
        <g id="Graphic_10450"/>
        <g id="Group_10451">
          <title>repository</title>
          <g id="Graphic_10452">
            <path d="M 25.559666 -2804.737 C 26.632404 -2804.737 27.50303 -2803.8663 27.50303 -2802.7935 L 27.50303 -2792.6802 C 27.50303 -2791.6075 26.632404 -2790.737 25.559666 -2790.737 L 15.446396 -2790.737 C 14.373659 -2790.737 13.503031 -2791.6075 13.503031 -2792.6802 L 13.503031 -2802.7935 C 13.503031 -2803.8585 14.365885 -2804.7213 15.423076 -2804.737 C 15.423076 -2804.737 18.80453 -2804.737 25.551893 -2804.737 Z M 15.47749 -2803.9595 C 14.808972 -2803.9595 14.28815 -2803.4387 14.28815 -2802.7935 L 14.28815 -2792.6802 C 14.28815 -2792.035 14.801199 -2791.5142 15.446396 -2791.5142 L 25.559666 -2791.5142 C 26.204863 -2791.5142 26.725685 -2792.035 26.725685 -2792.6802 L 26.725685 -2802.7935 C 26.725685 -2803.4387 26.204863 -2803.9595 25.559666 -2803.9595 Z M 18.866718 -2796.0384 C 18.998867 -2795.8674 18.975546 -2795.6264 18.80453 -2795.4942 C 18.633514 -2795.362 18.392537 -2795.3854 18.260388 -2795.5564 L 16.705696 -2797.4998 C 16.589094 -2797.6397 16.589094 -2797.8418 16.705696 -2797.9817 L 18.260388 -2799.925 C 18.392537 -2800.096 18.641288 -2800.1194 18.80453 -2799.9873 C 18.975546 -2799.855 18.998867 -2799.6064 18.866718 -2799.443 L 17.506363 -2797.7408 Z M 22.147118 -2799.443 C 22.01497 -2799.6142 22.03829 -2799.855 22.209305 -2799.9873 C 22.380322 -2800.1194 22.6213 -2800.096 22.753448 -2799.925 L 24.30814 -2797.9817 C 24.42474 -2797.8418 24.42474 -2797.6397 24.30814 -2797.4998 L 22.753448 -2795.5564 C 22.6213 -2795.3854 22.372548 -2795.362 22.209305 -2795.4942 C 22.03829 -2795.6264 22.01497 -2795.875 22.147118 -2796.0384 L 23.507473 -2797.7408 L 22.147118 -2799.443 Z" fill="#999"/>
          </g>
        </g>
      </g>
    </g>
  </g>
</svg>
